src/public/favicon.svg

<svg width="44" height="44" viewBox="0 0 44 44" fill="none" xmlns="http://www.w3.org/2000/svg"><rect x="4" y="4" width="36" height="36" rx="18" fill="#3350E9"/><rect x="2" y="2" width="40" height="40" rx="20" stroke="#3350E9" stroke-opacity="0.2" stroke-width="4"/><path d="m24.74 24.16 1.7-6.16h2.74L26 28h-2.46l-1.84-6.06L19.86 28H17.4l-3.18-10h2.74l1.7 6.14L20.48 18h2.44l1.82 6.16z" fill="#FBFBFB"/></svg>

<svg width="44" height="44" viewBox="0 0 44 44" fill="none" xmlns="http://www.w3.org/2000/svg">
<rect x="4" y="4" width="36" height="36" rx="18" fill="#3350E9"/>
<rect x="2" y="2" width="40" height="40" rx="20" stroke="#3350E9" stroke-opacity="0.2" stroke-width="4"/>
<path d="M24.74 24.16L26.44 18H29.18L26 28H23.54L21.7 21.94L19.86 28H17.4L14.22 18H16.96L18.66 24.14L20.48 18H22.92L24.74 24.16Z" fill="#FBFBFB"/>
</svg>
